src/components/stable/gux-icon/icons/star.svg

<svg viewBox="0 0 32 32" fill="none" xmlns="http://www.w3.org/2000/svg">
  <path fill-rule="evenodd" clip-rule="evenodd" d="M16 32C24.8366 32 32 24.8366 32 16C32 7.16344 24.8366 0 16 0C7.16344 0 0 7.16344 0 16C0 24.8366 7.16344 32 16 32ZM8.36165 23.5618L9.90524 18.9155V18.9162L14.1394 21.8727L9.74673 24.637C8.99501 25.1361 8.04533 24.4067 8.36165 23.5618ZM21.1049 17.7247C21.1049 17.8012 21.1049 17.8402 21.1444 17.9168V17.9161L23.2417 23.5994C23.5186 24.406 22.5689 25.1354 21.8172 24.6364L16.3952 20.9888C16.3163 20.9498 16.2374 20.9115 16.1184 20.8732L10.3406 16.8415L10.3012 16.8032L6.73916 13.9233C6.06634 13.386 6.46228 12.3107 7.33307 12.3107H12.0427C12.4387 12.3107 12.7945 12.0804 12.9135 11.7345L15.0503 6.20497C15.3279 5.39834 16.515 5.39834 16.7919 6.20497L18.8498 11.6962C18.8498 11.7345 18.8892 11.8117 18.9287 11.85L21.1049 17.7247ZM21.0655 12.3107H24.6669C25.5377 12.3107 25.9337 13.386 25.2608 13.9233L22.5696 16.3425L21.0655 12.3107Z"/>
</svg>

<svg viewBox="0 0 32 32" fill="none" xmlns="http://www.w3.org/2000/svg"><path fill-rule="evenodd" clip-rule="evenodd" d="M16 32c8.837 0 16-7.163 16-16S24.837 0 16 0 0 7.163 0 16s7.163 16 16 16zm-7.638-8.438l1.543-4.646 4.234 2.957-4.392 2.764c-.752.5-1.702-.23-1.385-1.075zm12.743-5.837c0 .076 0 .115.04.192l2.097 5.682c.277.807-.673 1.536-1.425 1.037l-5.422-3.647a1.85 1.85 0 00-.277-.116l-5.777-4.032-.04-.038-3.562-2.88c-.673-.537-.277-1.612.594-1.612h4.71c.396 0 .752-.23.87-.576l2.137-5.53c.278-.807 1.465-.807 1.742 0l2.058 5.491c0 .039.04.116.079.154l2.176 5.875zm-.04-5.414h3.602c.87 0 1.267 1.075.594 1.612l-2.691 2.42-1.505-4.032z"/></svg>
